!!!COM: Palestrina, Giovanni Perluigi da
!!!OPR: Missa De Beata Marie Virginis (III)
!!!OMD: Gloria
!!!OTL: Amen
**kern	**kern	**kern	**kern	**kern
*Ibass	*Itenor	*Itenor	*Icalto	*Icant
!Bassus	!Tenor 2	!Tenor 1	!Altus	!Cantus
*clefF4	*clefGv2	*clefGv2	*clefG2	*clefG2
*k[]	*k[]	*k[]	*k[]	*k[]
*G:mix	*G:mix	*G:mix	*G:mix	*G:mix
*M4/2	*M4/2	*M4/2	*M4/2	*M4/2
=119	=119	=119	=119	=119
0r	0r	0r	1r	1.dd
.	.	.	1g	.
.	.	.	.	2b
=120	=120	=120	=120	=120
0r	0r	0r	2e	2.cc
.	.	.	1f	.
.	.	.	.	4b
.	.	.	.	2a
.	.	.	2e	2g
=121	=121	=121	=121	=121
0r	0r	0r	2d	2a
.	.	.	4c	1cc
.	.	.	4d	.
.	.	.	4e	.
.	.	.	4f#	.
.	.	.	[2g	2b
=122	=122	=122	=122	=122
1r	0r	1.d	2g]	1a
.	.	.	2f#	.
1G	.	.	1g	2b
.	.	2B	.	[2g
=123	=123	=123	=123	=123
2E	0r	2.c	2r	2g]
1F	.	.	2c	2.a
.	.	4B	.	.
.	.	2A	2d	.
.	.	.	.	4b
2E	.	2G	2e	2cc
=124	=124	=124	=124	=124
2D	0r	2A	2f	2dd
4C	.	1c	1e	2.g
4D	.	.	.	.
4E	.	.	.	.
4F#	.	.	.	4a
[2G	.	2B	2d	2b
=125	=125	=125	=125	=125
2G]	1r	1A	2c	1cc
2F#	.	.	2A	.
[1G	[1d	1G	4B	2.b
.	.	.	4A	.
.	.	.	4G	.
.	.	.	4A	4cc
=126	=126	=126	=126	=126
1G]	2d]	2.g	4B	1dd
.	.	.	4c	.
.	2B	.	2d	.
.	.	4f	.	.
2r	2.c	4e	1g	1ee
.	.	4d	.	.
[2c	.	[2e	.	.
.	4B	.	.	.
=127	=127	=127	=127	=127
2c]	2A	4e]	2a	2r
.	.	4c	.	.
2B	2G	2d	2b	2gg
2.A	2A	2c	2.cc	2ff
.	[2c	2e	.	2ee
4G	.	.	4b	.
=128	=128	=128	=128	=128
2F	2c]	4f	2a	0dd
.	.	4e	.	.
2G	2B	4d	1g	.
.	.	4c	.	.
1D	1A	1d	.	.
.	.	.	2f#	.
=129	=129	=129	=129	=129
[0G	[0G	[0d	[0g	[0b
=130	=130	=130	=130	=130
0G]	0G]	0d]	0g]	0b]
==	==	==	==	==
*-	*-	*-	*-	*-
!!!CDT: 1525/^1526/-1594/2/2
!!!OCY: Italia
!!!AGN: Mass (Paraphrase)
!!!AST: renaissance, vocal
!!!ASW: Gregorian Mass
!!!PWK: Masses, Book Mantuan I
!!!RNB: Cadence finals: D
!!!YOR: Le Opere Complete, v. 18, p. 162
!!!YOO: Rome, Italy: Fratelli Scalera
!!!END: 1992//
!!!EED: John Miller
!!!YEC: Copyright 2000, John Miller
!!!YEN: United States of America
!!!YEM: Rights to all derivative electronic formats reserved.
!!!YEM: Refer to licensing agreement for further details.
!!!YEM: This file must be accompanied by the licensing agreement.
!!!YEM: A copy of the licensing agreement may be found at http://www.music-cog.ohio-state.edu/HumdrumDatabases/Palestrina/license.txt
!!!EMD: converted to Humdrum by Bret Aarden
